X: 40576
T: Tommy Whelan's
R: reel
M: 4/4
K: Gmajor
G2dB eBdG|G2BG AGEG|G2GB ezeg|dBGB AcBA|
G2dB eBdG|G2BG AGEG|G2GB ezeg|dBAc BGG2||
Bdd2 edge|edBd AGeg|gedg egge|dBAc BGBd|
gabg eggd|edBG AGED|BA(3Bcd efge|dedB AcBA||

